assets/medical-grey/MedicalGrey14.svg

<svg xmlns="http://www.w3.org/2000/svg" id="icons" viewBox="0 0 64 64"><defs><style>.cls-1{fill:none;stroke:#000;stroke-linecap:round;stroke-linejoin:round;stroke-width:2px}</style></defs><g id="hospital_bed" data-name="hospital bed"><path d="M5.83 15.98v32.09M58.01 24.07v24M5.83 41.98h52.18M52.1 32.4v9.58H18.68L5.83 31.02l9.58-8.17 11.39 9.73 25.3-.18zM20.89 22.85l6.01 5.37" class="cls-1"/><circle cx="5.83" cy="51.74" r="3.67" class="cls-1"/><circle cx="58.01" cy="51.74" r="3.67" class="cls-1"/></g></svg>

<svg xmlns="http://www.w3.org/2000/svg" id="icons" viewBox="0 0 64 64"><defs><style>.cls-1{fill:none;stroke:#000;stroke-linecap:round;stroke-linejoin:round;stroke-width:2px;}</style></defs><g id="hospital_bed" data-name="hospital bed"><path d="M5.83 15.98 5.83 48.07" class="cls-1"/><path d="M58.01 24.07 58.01 48.07" class="cls-1"/><path d="M5.83 41.98 58.01 41.98" class="cls-1"/><path d="M52.1 32.4 52.1 41.98 18.68 41.98 5.83 31.02 15.41 22.85 26.8 32.58 52.1 32.4z" class="cls-1"/><path d="M20.89 22.85 26.9 28.22" class="cls-1"/><circle cx="5.83" cy="51.74" r="3.67" class="cls-1"/><circle cx="58.01" cy="51.74" r="3.67" class="cls-1"/></g></svg>
